actions/48/go-top.svg

<?xml version="1.0" encoding="UTF-8" standalone="no"?>
<svg
   xmlns:dc="http://purl.org/dc/elements/1.1/"
   xmlns:cc="http://creativecommons.org/ns#"
   xmlns:rdf="http://www.w3.org/1999/02/22-rdf-syntax-ns#"
   xmlns:svg="http://www.w3.org/2000/svg"
   xmlns="http://www.w3.org/2000/svg"
   xmlns:xlink="http://www.w3.org/1999/xlink"
   width="48px"
   height="48px"
   id="svg2511"
   version="1.1">
  <defs
     id="defs2513">
    <linearGradient
       id="linearGradient3167">
      <stop
         id="stop3169"
         offset="0"
         style="stop-color:#a7cc5c;stop-opacity:1;" />
      <stop
         id="stop3171"
         offset="1"
         style="stop-color:#789e2d;stop-opacity:1;" />
    </linearGradient>
    <linearGradient
       gradientTransform="translate(13.034706,29.348369)"
       y2="-23.848377"
       x2="26.965281"
       y1="-23.848377"
       x1="-5.0347199"
       gradientUnits="userSpaceOnUse"
       id="linearGradient2485"
       xlink:href="#linearGradient3167" />
    <linearGradient
       id="linearGradient5113">
      <stop
         id="stop5115"
         offset="0"
         style="stop-color:white;stop-opacity:1;" />
      <stop
         id="stop5117"
         offset="1"
         style="stop-color:#ffffff;stop-opacity:0;" />
    </linearGradient>
    <linearGradient
       gradientTransform="matrix(0,-1.004639,1,0,-1.9921252,51.044049)"
       gradientUnits="userSpaceOnUse"
       y2="34.731434"
       x2="7.9313831"
       y1="15.195395"
       x1="43.129921"
       id="linearGradient5315"
       xlink:href="#linearGradient5113" />
    <linearGradient
       id="linearGradient2264">
      <stop
         id="stop3244-gr"
         style="stop-color:#cdf87e;stop-opacity:1"
         offset="0" />
      <stop
         id="stop3246-gr"
         style="stop-color:#a2e34f;stop-opacity:1"
         offset="0.26238" />
      <stop
         id="stop3248-gr"
         style="stop-color:#68b723;stop-opacity:1"
         offset="0.66093999" />
      <stop
         id="stop3250-gr"
         style="stop-color:#1d7e0d;stop-opacity:1"
         offset="1" />
    </linearGradient>
    <linearGradient
       gradientUnits="userSpaceOnUse"
       y2="40.70282"
       x2="23.964672"
       y1="9.7307692"
       x1="23.964672"
       id="linearGradient3173"
       xlink:href="#linearGradient2264"
       gradientTransform="translate(-1.425e-5,-1.13125e-5)" />
    <linearGradient
       id="linearGradient5105">
      <stop
         id="stop5107"
         offset="0"
         style="stop-color:black;stop-opacity:1;" />
      <stop
         id="stop5109"
         offset="1"
         style="stop-color:black;stop-opacity:0;" />
    </linearGradient>
    <radialGradient
       r="8.0625"
       fy="19.03125"
       fx="11.25"
       cy="19.03125"
       cx="11.25"
       gradientTransform="matrix(2.48062,0,0,0.68217177,-3.9069763,27.517428)"
       gradientUnits="userSpaceOnUse"
       id="radialGradient4354"
       xlink:href="#linearGradient5105" />
  </defs>
  <metadata
     id="metadata2516">
    <rdf:RDF>
      <cc:Work
         rdf:about="">
        <dc:format>image/svg+xml</dc:format>
        <dc:type
           rdf:resource="http://purl.org/dc/dcmitype/StillImage" />
      </cc:Work>
    </rdf:RDF>
  </metadata>
  <path
     d="m 43.999997,40.499995 a 19.999999,5.5000048 0 1 1 -39.999997,0 19.999999,5.5000048 0 1 1 39.999997,0 z"
     id="path2579"
     style="display:inline;overflow:visible;visibility:visible;opacity:0.16292138;fill:url(#radialGradient4354);fill-opacity:1;fill-rule:nonzero;stroke:none;stroke-width:2.44554257;stroke-linecap:butt;stroke-linejoin:miter;stroke-miterlimit:4;stroke-dasharray:none;stroke-dashoffset:0;stroke-opacity:1;marker:none;marker-start:none;marker-mid:none;marker-end:none" />
  <path
     id="path2581"
     d="M 7.5000001,27.504165 24.006024,8.5000197 40.429315,27.504165 H 32.55948 V 42.500004 H 15.504348 V 27.504165 Z"
     style="display:inline;overflow:visible;visibility:visible;opacity:1;fill:url(#linearGradient3173);fill-opacity:1;fill-rule:nonzero;stroke:none;stroke-width:0.99999958;stroke-linecap:butt;stroke-linejoin:miter;stroke-miterlimit:4;stroke-dasharray:none;stroke-dashoffset:0;stroke-opacity:1;marker:none;marker-start:none;marker-mid:none;marker-end:none" />
  <path
     id="path2583"
     d="M 9.6410572,26.433316 24.02733,9.9166767 38.226631,26.433316 H 31.488262 V 41.499999 H 16.509928 V 26.433316 Z"
     style="display:inline;overflow:visible;visibility:visible;opacity:0.35400008;fill:none;fill-opacity:1;fill-rule:nonzero;stroke:url(#linearGradient5315);stroke-width:0.99999958;stroke-linecap:butt;stroke-linejoin:miter;stroke-miterlimit:4;stroke-dasharray:none;stroke-dashoffset:0;stroke-opacity:1;marker:none;marker-start:none;marker-mid:none;marker-end:none" />
  <rect
     y="3.4999974"
     x="7.4999876"
     height="4.0000119"
     width="33.000008"
     id="rect4242"
     style="display:inline;overflow:visible;visibility:visible;fill:#cdf87e;fill-opacity:1;fill-rule:nonzero;stroke:none;stroke-width:0.99999982;stroke-linecap:butt;stroke-linejoin:miter;stroke-miterlimit:4;stroke-dasharray:none;stroke-dashoffset:0;stroke-opacity:1;marker:none;marker-start:none;marker-mid:none;marker-end:none" />
  <rect
     y="4.4999895"
     x="8.4999857"
     height="2.0000019"
     width="31"
     id="rect6697"
     style="display:inline;overflow:visible;visibility:visible;opacity:0.35400008;fill:url(#linearGradient2485);fill-opacity:1;fill-rule:nonzero;stroke:#ffffff;stroke-width:0.99999988;stroke-linecap:butt;stroke-linejoin:miter;stroke-miterlimit:4;stroke-dasharray:none;stroke-dashoffset:0;stroke-opacity:1;marker:none;marker-start:none;marker-mid:none;marker-end:none" />
  <path
     style="display:inline;overflow:visible;visibility:visible;opacity:0.5;fill:none;fill-opacity:1;fill-rule:nonzero;stroke:#0f5a00;stroke-width:0.99999958;stroke-linecap:butt;stroke-linejoin:miter;stroke-miterlimit:4;stroke-dasharray:none;stroke-dashoffset:0;stroke-opacity:1;marker:none;marker-start:none;marker-mid:none;marker-end:none"
     d="M 7.5000001,27.504165 24.006024,8.5000197 40.429315,27.504165 H 32.55948 V 42.500004 H 15.504348 V 27.504165 Z"
     id="path851" />
  <rect
     style="display:inline;overflow:visible;visibility:visible;fill:none;fill-opacity:1;fill-rule:nonzero;stroke:#0f5a00;stroke-width:0.99999982;stroke-linecap:butt;stroke-linejoin:miter;stroke-miterlimit:4;stroke-dasharray:none;stroke-dashoffset:0;stroke-opacity:1;marker:none;marker-start:none;marker-mid:none;marker-end:none;opacity:0.5"
     id="rect853"
     width="33.000008"
     height="4.0000119"
     x="7.4999876"
     y="3.4999974" />
</svg>

<?xml version="1.0" encoding="UTF-8" standalone="no"?>
<svg
   xmlns:dc="http://purl.org/dc/elements/1.1/"
   xmlns:cc="http://creativecommons.org/ns#"
   xmlns:rdf="http://www.w3.org/1999/02/22-rdf-syntax-ns#"
   xmlns:svg="http://www.w3.org/2000/svg"
   xmlns="http://www.w3.org/2000/svg"
   xmlns:xlink="http://www.w3.org/1999/xlink"
   version="1.1"
   width="48"
   height="48"
   id="svg2511">
  <defs
     id="defs2513">
    <linearGradient
       id="linearGradient3167">
      <stop
         id="stop3169"
         style="stop-color:#a7cc5c;stop-opacity:1"
         offset="0" />
      <stop
         id="stop3171"
         style="stop-color:#789e2d;stop-opacity:1"
         offset="1" />
    </linearGradient>
    <linearGradient
       x1="-5.0347199"
       y1="-23.848377"
       x2="26.965281"
       y2="-23.848377"
       id="linearGradient2485"
       xlink:href="#linearGradient3167"
       gradientUnits="userSpaceOnUse"
       gradientTransform="translate(13.03472,29.34838)" />
    <linearGradient
       id="linearGradient5113">
      <stop
         id="stop5115"
         style="stop-color:#ffffff;stop-opacity:1"
         offset="0" />
      <stop
         id="stop5117"
         style="stop-color:#ffffff;stop-opacity:0"
         offset="1" />
    </linearGradient>
    <linearGradient
       x1="43.129921"
       y1="15.195395"
       x2="7.9313831"
       y2="34.731434"
       id="linearGradient5315"
       xlink:href="#linearGradient5113"
       gradientUnits="userSpaceOnUse"
       gradientTransform="matrix(0,-1.004639,1,0,-1.992111,51.04406)" />
    <linearGradient
       id="linearGradient2264">
      <stop
         id="stop2266"
         style="stop-color:#d7e866;stop-opacity:1"
         offset="0" />
      <stop
         id="stop2268"
         style="stop-color:#8cab2a;stop-opacity:1"
         offset="1" />
    </linearGradient>
    <linearGradient
       x1="23.964672"
       y1="11.357888"
       x2="23.964672"
       y2="40.70282"
       id="linearGradient3173"
       xlink:href="#linearGradient2264"
       gradientUnits="userSpaceOnUse" />
    <linearGradient
       id="linearGradient5105">
      <stop
         id="stop5107"
         style="stop-color:#000000;stop-opacity:1"
         offset="0" />
      <stop
         id="stop5109"
         style="stop-color:#000000;stop-opacity:0"
         offset="1" />
    </linearGradient>
    <radialGradient
       cx="11.25"
       cy="19.03125"
       r="8.0625"
       fx="11.25"
       fy="19.03125"
       id="radialGradient4354"
       xlink:href="#linearGradient5105"
       gradientUnits="userSpaceOnUse"
       gradientTransform="matrix(1,0,0,0.282946,0,13.64644)" />
  </defs>
  <metadata
     id="metadata2516">
    <rdf:RDF>
      <cc:Work
         rdf:about="">
        <dc:format>image/svg+xml</dc:format>
        <dc:type
           rdf:resource="http://purl.org/dc/dcmitype/StillImage" />
      </cc:Work>
    </rdf:RDF>
  </metadata>
  <g
     id="layer1">
    <g
       transform="translate(-1.425e-5,-1.13125e-5)"
       id="g2577"
       style="display:inline">
      <path
         d="m 19.3125,19.03125 a 8.0625,2.28125 0 1 1 -16.125,0 8.0625,2.28125 0 1 1 16.125,0 z"
         transform="matrix(2.48062,0,0,2.410961,-3.906962,-5.383595)"
         id="path2579"
         style="opacity:0.16292138;fill:url(#radialGradient4354);fill-opacity:1;fill-rule:nonzero;stroke:none;stroke-width:1;marker:none;visibility:visible;display:inline;overflow:visible" />
      <path
         d="M 7.5000144,27.504176 24.006038,8.500031 l 16.423291,19.004145 -7.869835,0 0,14.995839 -17.055132,0 0,-14.995839 -8.0043476,0 z"
         id="path2581"
         style="fill:url(#linearGradient3173);fill-opacity:1;fill-rule:nonzero;stroke:#548820;stroke-width:0.99999958;stroke-linecap:butt;stroke-linejoin:miter;stroke-miterlimit:4;stroke-opacity:1;stroke-dasharray:none;stroke-dashoffset:0;marker:none;visibility:visible;display:inline;overflow:visible" />
      <path
         d="M 9.6410714,26.433327 24.027344,9.916688 l 14.199301,16.516639 -6.738369,0 0,15.066683 -14.978334,0 0,-15.066683 -6.8688706,0 z"
         id="path2583"
         style="opacity:0.35400008;fill:none;stroke:url(#linearGradient5315);stroke-width:0.99999958;stroke-linecap:butt;stroke-linejoin:miter;stroke-miterlimit:4;stroke-opacity:1;stroke-dasharray:none;stroke-dashoffset:0;marker:none;visibility:visible;display:inline;overflow:visible" />
      <rect
         width="33.000008"
         height="4.0000119"
         x="7.5000019"
         y="3.5000086"
         id="rect4242"
         style="fill:#c2ce70;fill-opacity:1;fill-rule:nonzero;stroke:#548820;stroke-width:0.99999982;stroke-linecap:butt;stroke-linejoin:miter;stroke-miterlimit:4;stroke-opacity:1;stroke-dasharray:none;stroke-dashoffset:0;marker:none;visibility:visible;display:inline;overflow:visible" />
      <rect
         width="31"
         height="2.0000019"
         x="8.5"
         y="4.500001"
         id="rect6697"
         style="opacity:0.35400008;fill:url(#linearGradient2485);fill-opacity:1;fill-rule:nonzero;stroke:#ffffff;stroke-width:0.99999988;stroke-linecap:butt;stroke-linejoin:miter;stroke-miterlimit:4;stroke-opacity:1;stroke-dasharray:none;stroke-dashoffset:0;marker:none;visibility:visible;display:inline;overflow:visible" />
    </g>
  </g>
</svg>
